gama.ui.shared/icons_svg/light/overlays/small.exp.back.white.svg

<svg height="16" viewBox="-556.984 -3586.576 16 16" width="16" xmlns="http://www.w3.org/2000/svg"><g fill="#fff"><path d="m-547.9578-3583.513v9.8832c0 .2428.1527.4382.3422.4382.0685 0 .1369-.027.1896-.0741l5.61285-4.8743c.18429-.1616.23165-.4852.10531-.721-.02636-.054-.06316-.1013-.10531-.135l-5.61285-4.881c-.158-.1347-.3686-.0808-.4739.1147-.03686.0743-.0579.1553-.0579.2427zm-.52656 0c0-.2223.05266-.438.14746-.627.2738-.5054.81084-.6402 1.211-.2964l5.6129 4.8741c.1.0876.18426.1953.24745.3168.28959.5461.17905 1.2875-.24745 1.6585l-5.6129 4.874c-.14216.128-.3159.189-.4897.189-.4791 0-.86876-.499-.86876-1.1125z"/><path d="m-550.00974-3573.6383v-9.8831c0-.2426-.15269-.4382-.34226-.4382-.06844 0-.1369.027-.18954.0742l-5.61286 4.8741c-.1843.1618-.2317.4853-.1053.7213.0263.054.06317.101.1053.135l5.61286 4.8807c.15794.1349.36858.0809.47388-.1147.03686-.074.05792-.155.05792-.2426zm.52654 0c0 .2223-.05266.4383-.1474.6269-.2738.5057-.8109.6404-1.21106.2967l-5.61288-4.8743c-.10006-.0875-.18426-.1953-.24746-.3167-.2896-.5461-.179-1.2876.24746-1.6583l5.61288-4.874c.14216-.1283.31592-.189.48966-.189.47916 0 .8688.499.8688 1.1124z"/></g></svg>

<?xml version="1.0" encoding="UTF-8" standalone="no"?>
<!DOCTYPE svg PUBLIC "-//W3C//DTD SVG 1.1//EN" "http://www.w3.org/Graphics/SVG/1.1/DTD/svg11.dtd">
<svg version="1.1" xmlns="http://www.w3.org/2000/svg" xmlns:xl="http://www.w3.org/1999/xlink" xmlns:dc="http://purl.org/dc/elements/1.1/" viewBox="-556.9838 -3586.5756 16.000008 16.000008" width="16.000008" height="16.000008">
  <defs/>
  <g id="SOURCES" stroke-dasharray="none" fill="none" stroke="none" fill-opacity="1" stroke-opacity="1">
    <title>SOURCES</title>
    <g id="SOURCES_Calque_2">
      <title>Calque 2</title>
      <g id="Group_9577">
        <g id="Graphic_9574"/>
        <g id="Group_9576">
          <g id="Graphic_9573">
            <path d="M -547.9578 -3583.513 L -547.9578 -3573.6298 C -547.9578 -3573.387 -547.8051 -3573.1916 -547.6156 -3573.1916 C -547.5471 -3573.1916 -547.4787 -3573.2186 -547.426 -3573.2657 L -541.81315 -3578.14 C -541.62886 -3578.3016 -541.5815 -3578.6252 -541.70784 -3578.861 C -541.7342 -3578.915 -541.771 -3578.9623 -541.81315 -3578.996 L -547.426 -3583.877 C -547.584 -3584.0117 -547.7946 -3583.9578 -547.8999 -3583.7623 C -547.93676 -3583.688 -547.9578 -3583.607 -547.9578 -3583.5196 Z M -548.48436 -3583.513 C -548.48436 -3583.7353 -548.4317 -3583.951 -548.3369 -3584.14 C -548.0631 -3584.6454 -547.52606 -3584.7802 -547.1259 -3584.4364 L -541.513 -3579.5623 C -541.413 -3579.4747 -541.32874 -3579.367 -541.26555 -3579.2455 C -540.97596 -3578.6994 -541.0865 -3577.958 -541.513 -3577.587 L -547.1259 -3572.713 C -547.26806 -3572.585 -547.4418 -3572.524 -547.6156 -3572.524 C -548.0947 -3572.524 -548.48436 -3573.023 -548.48436 -3573.6365 Z" fill="white"/>
          </g>
          <g id="Graphic_9575">
            <path d="M -550.00974 -3573.6383 L -550.00974 -3583.5214 C -550.00974 -3583.764 -550.16243 -3583.9596 -550.352 -3583.9596 C -550.42044 -3583.9596 -550.4889 -3583.9326 -550.54154 -3583.8854 L -556.1544 -3579.0113 C -556.3387 -3578.8495 -556.3861 -3578.526 -556.2597 -3578.29 C -556.2334 -3578.236 -556.19653 -3578.189 -556.1544 -3578.155 L -550.54154 -3573.2743 C -550.3836 -3573.1394 -550.17296 -3573.1934 -550.06766 -3573.389 C -550.0308 -3573.463 -550.00974 -3573.544 -550.00974 -3573.6316 Z M -549.4832 -3573.6383 C -549.4832 -3573.416 -549.53586 -3573.2 -549.6306 -3573.0114 C -549.9044 -3572.5057 -550.4415 -3572.371 -550.84166 -3572.7147 L -556.45454 -3577.589 C -556.5546 -3577.6765 -556.6388 -3577.7843 -556.702 -3577.9057 C -556.9916 -3578.4518 -556.881 -3579.1933 -556.45454 -3579.564 L -550.84166 -3584.438 C -550.6995 -3584.5663 -550.52574 -3584.627 -550.352 -3584.627 C -549.87284 -3584.627 -549.4832 -3584.128 -549.4832 -3583.5146 Z" fill="white"/>
          </g>
        </g>
      </g>
    </g>
  </g>
</svg>
